src/assets/images/img_draw_disk.svg

<svg width="742" height="749" viewBox="0 0 742 749" fill="none" xmlns="http://www.w3.org/2000/svg">
<path d="M371.001 666.456C532.334 666.456 663.121 535.67 663.121 374.338C663.121 213.005 532.334 82.2192 371.001 82.2192C209.668 82.2192 78.8821 213.005 78.8821 374.338C78.8821 535.67 209.668 666.456 371.001 666.456Z" stroke="#2B2A29" stroke-width="5" stroke-miterlimit="22.9256"/>
<path d="M370.999 631.799C513.191 631.799 628.46 516.529 628.46 374.338C628.46 232.146 513.191 116.876 370.999 116.876C228.808 116.876 113.538 232.146 113.538 374.338C113.538 516.529 228.808 631.799 370.999 631.799Z" stroke="#2B2A29" stroke-width="5" stroke-miterlimit="22.9256"/>
<path d="M371.001 572.385C480.38 572.385 569.048 483.716 569.048 374.338C569.048 264.959 480.38 176.291 371.001 176.291C261.623 176.291 172.954 264.959 172.954 374.338C172.954 483.716 261.623 572.385 371.001 572.385Z" stroke="#2B2A29" stroke-width="5" stroke-miterlimit="22.9256"/>
<path d="M371.001 522.873C453.035 522.873 519.537 456.371 519.537 374.337C519.537 292.304 453.035 225.802 371.001 225.802C288.968 225.802 222.466 292.304 222.466 374.337C222.466 456.371 288.968 522.873 371.001 522.873Z" stroke="#2B2A29" stroke-width="5" stroke-miterlimit="22.9256"/>
<path d="M371 489.556C434.127 489.556 485.3 437.971 485.3 374.337C485.3 310.704 434.127 259.119 371 259.119C307.874 259.119 256.701 310.704 256.701 374.337C256.701 437.971 307.874 489.556 371 489.556Z" stroke="#2B2A29" stroke-width="5" stroke-miterlimit="22.9256"/>
<path d="M371 404.044C387.407 404.044 400.707 390.744 400.707 374.337C400.707 357.931 387.407 344.63 371 344.63C354.594 344.63 341.293 357.931 341.293 374.337C341.293 390.744 354.594 404.044 371 404.044Z" stroke="#2B2A29" stroke-width="5" stroke-miterlimit="22.9256"/>
<path fill-rule="evenodd" clip-rule="evenodd" d="M62.6165 181.151C69.2244 174.31 69.2243 174.31 73.1298 165.246C77.0373 156.182 84.8483 138.052 97.6332 123.971C110.417 109.89 128.171 99.8564 143.661 87.3666C159.153 74.8747 172.375 59.9232 188.884 50.4823C205.395 41.0404 225.187 37.1102 235.083 35.1445C244.981 33.1779 244.981 33.1779 254.389 27.9356C263.798 22.6913 282.615 12.2067 301.232 8.32997C319.851 4.45221 338.267 7.18724 347.476 8.55376C356.686 9.92029 356.686 9.92029 367.011 7.81208C377.337 5.70387 397.988 1.48745 416.892 3.55605C435.796 5.62267 452.954 13.9733 461.533 18.1491C470.111 22.325 470.111 22.325 481.243 23.8331C492.376 25.3402 514.643 28.3565 531.982 36.1665C549.322 43.9745 561.737 56.5752 567.943 62.8761C574.151 69.1769 574.151 69.1769 584.378 74.1598C594.606 79.1427 615.06 89.1094 628.732 101.668C642.404 114.224 649.292 129.375 652.557 136.851C655.821 144.327 655.458 144.128 663.414 151.091C671.372 158.055 687.648 172.18 697.674 189.019C707.702 205.858 711.482 225.41 713.371 235.188C715.261 244.963 715.261 244.963 720.598 254.953C725.936 264.941 736.613 284.918 729.529 301.732C722.447 318.546 697.608 332.195 687.736 344.438C677.865 356.68 682.965 367.514 696.094 378.888C709.222 390.263 730.382 402.176 736.723 417.474C743.065 432.769 734.588 451.451 730.351 460.792C726.113 470.131 726.113 470.131 724.863 480.741C723.614 491.351 721.117 512.569 713.309 529.912C705.502 547.255 692.384 560.723 685.826 567.457C679.268 574.19 679.268 574.19 675.192 583.457C671.117 592.724 662.967 611.255 650.183 625.337C637.399 639.418 619.983 649.047 611.273 653.862C602.565 658.676 602.565 658.676 596.38 665.873C590.196 673.068 577.827 687.461 561.319 696.903C544.809 706.343 524.16 710.831 513.835 713.077C503.512 715.322 503.512 715.322 495.324 720.278C487.137 725.233 470.762 735.146 452.143 739.021C433.527 742.897 412.667 740.739 402.235 739.66C391.806 738.581 391.806 738.581 381.972 740.735C372.139 742.888 352.472 747.195 333.568 745.127C314.665 743.061 296.522 734.618 287.452 730.397C278.382 726.176 278.382 726.176 267.993 725.027C257.605 723.877 236.827 721.578 219.487 713.77C202.148 705.96 188.245 692.641 181.292 685.982C174.342 679.323 174.342 679.323 165.606 675.68C156.872 672.035 139.402 664.746 125.322 651.961C111.244 639.175 100.557 620.89 95.2131 611.749C89.8688 602.608 89.8688 602.608 82.7807 596.579C75.6936 590.55 61.5193 578.489 52.0784 561.977C42.6395 545.466 37.9359 524.502 35.5831 514.019C33.2313 503.538 33.2313 503.538 27.9078 493.646C22.5853 483.753 11.9373 463.966 8.0615 445.344C4.18572 426.724 7.08215 409.269 8.31697 401.022C9.5518 392.776 9.126 393.74 7.09998 382.808C5.07396 371.874 1.44772 349.045 3.72724 329.657C6.00676 310.267 14.194 294.318 18.2867 286.343C22.3793 278.37 22.3793 278.37 23.5795 267.867C24.7796 257.361 27.182 236.353 34.989 219.009C42.797 201.666 56.0097 187.989 62.6165 181.151V181.151Z" stroke="#2B2A29" stroke-width="5" stroke-miterlimit="22.9256"/>
<path d="M691.588 374.659C691.593 375.404 691.596 376.149 691.596 376.893C691.596 554.633 547.509 698.72 369.77 698.72C192.029 698.72 47.9433 554.633 47.9433 376.893C47.9433 199.153 192.029 55.0659 369.77 55.0659C534.058 55.0659 671.973 178.814 689.715 342.142" stroke="#2B2A29" stroke-width="5" stroke-miterlimit="22.9256"/>
</svg>

<svg xmlns="http://www.w3.org/2000/svg" width="742" height="749" fill="none"><path stroke="#2B2A29" stroke-miterlimit="22.926" stroke-width="5" d="M371.001 666.456c161.333 0 292.12-130.786 292.12-292.118 0-161.333-130.787-292.119-292.12-292.119S78.882 213.005 78.882 374.338c0 161.332 130.786 292.118 292.119 292.118Z"/><path stroke="#2B2A29" stroke-miterlimit="22.926" stroke-width="5" d="M370.999 631.799c142.192 0 257.461-115.27 257.461-257.461 0-142.192-115.269-257.462-257.461-257.462-142.191 0-257.461 115.27-257.461 257.462 0 142.191 115.27 257.461 257.461 257.461Z"/><path stroke="#2B2A29" stroke-miterlimit="22.926" stroke-width="5" d="M371.001 572.385c109.379 0 198.047-88.669 198.047-198.047 0-109.379-88.668-198.047-198.047-198.047-109.378 0-198.047 88.668-198.047 198.047 0 109.378 88.669 198.047 198.047 198.047Z"/><path stroke="#2B2A29" stroke-miterlimit="22.926" stroke-width="5" d="M371.001 522.873c82.034 0 148.536-66.502 148.536-148.536 0-82.033-66.502-148.535-148.536-148.535-82.033 0-148.535 66.502-148.535 148.535 0 82.034 66.502 148.536 148.535 148.536Z"/><path stroke="#2B2A29" stroke-miterlimit="22.926" stroke-width="5" d="M371 489.556c63.127 0 114.3-51.585 114.3-115.219 0-63.633-51.173-115.218-114.3-115.218-63.126 0-114.299 51.585-114.299 115.218 0 63.634 51.173 115.219 114.299 115.219Z"/><path stroke="#2B2A29" stroke-miterlimit="22.926" stroke-width="5" d="M371 404.044c16.407 0 29.707-13.3 29.707-29.707 0-16.406-13.3-29.707-29.707-29.707-16.406 0-29.707 13.301-29.707 29.707 0 16.407 13.301 29.707 29.707 29.707Z"/><path stroke="#2B2A29" stroke-miterlimit="22.926" stroke-width="5" d="M62.617 181.151c6.607-6.841 6.607-6.841 10.513-15.905 3.907-9.064 11.718-27.194 24.503-41.275 12.784-14.081 30.538-24.115 46.028-36.604 15.492-12.492 28.714-27.444 45.223-36.885 16.511-9.442 36.303-13.372 46.199-15.337 9.898-1.967 9.898-1.967 19.306-7.21 9.409-5.244 28.226-15.728 46.843-19.605 18.619-3.878 37.035-1.143 46.244.224 9.21 1.366 9.21 1.366 19.535-.742 10.326-2.108 30.977-6.325 49.881-4.256 18.904 2.067 36.062 10.417 44.641 14.593 8.578 4.176 8.578 4.176 19.71 5.684 11.133 1.507 33.4 4.524 50.739 12.334 17.34 7.807 29.755 20.408 35.961 26.71 6.208 6.3 6.208 6.3 16.435 11.283 10.228 4.983 30.682 14.95 44.354 27.508 13.672 12.556 20.56 27.707 23.825 35.183 3.264 7.476 2.901 7.277 10.857 14.24 7.958 6.964 24.234 21.089 34.26 37.928 10.028 16.839 13.808 36.391 15.697 46.169 1.89 9.775 1.89 9.775 7.227 19.765 5.338 9.988 16.015 29.965 8.931 46.779-7.082 16.814-31.921 30.463-41.793 42.706-9.871 12.242-4.771 23.076 8.358 34.45 13.128 11.375 34.288 23.288 40.629 38.586 6.342 15.295-2.135 33.977-6.372 43.318-4.238 9.339-4.238 9.339-5.488 19.949-1.249 10.61-3.746 31.828-11.554 49.171-7.807 17.343-20.925 30.811-27.483 37.545-6.558 6.733-6.558 6.733-10.634 16-4.075 9.267-12.225 27.798-25.009 41.88-12.784 14.081-30.2 23.71-38.91 28.525-8.708 4.814-8.708 4.814-14.893 12.011-6.184 7.195-18.553 21.588-35.061 31.03-16.51 9.44-37.159 13.928-47.484 16.174-10.323 2.245-10.323 2.245-18.511 7.201-8.187 4.955-24.562 14.868-43.181 18.743-18.616 3.876-39.476 1.718-49.908.639-10.429-1.079-10.429-1.079-20.263 1.075-9.833 2.153-29.5 6.46-48.404 4.392-18.903-2.066-37.046-10.509-46.116-14.73s-9.07-4.221-19.459-5.37c-10.388-1.15-31.166-3.449-48.506-11.257-17.339-7.81-31.242-21.129-38.195-27.788-6.95-6.659-6.95-6.659-15.686-10.302-8.734-3.645-26.204-10.934-40.284-23.719-14.078-12.786-24.765-31.071-30.109-40.212-5.344-9.141-5.344-9.141-12.432-15.17-7.087-6.029-21.262-18.09-30.703-34.602-9.439-16.511-14.142-37.475-16.495-47.958-2.352-10.481-2.352-10.481-7.675-20.373-5.323-9.893-15.97-29.68-19.846-48.302-3.876-18.62-.98-36.075.255-44.322 1.235-8.246.809-7.282-1.217-18.214-2.026-10.934-5.652-33.763-3.373-53.151 2.28-19.39 10.467-35.339 14.56-43.314 4.092-7.973 4.092-7.973 5.293-18.476 1.2-10.506 3.602-31.514 11.409-48.858 7.808-17.343 21.02-31.02 27.628-37.858Z" clip-rule="evenodd"/><path stroke="#2B2A29" stroke-miterlimit="22.926" stroke-width="5" d="M691.588 374.659c.005.745.008 1.49.008 2.234 0 177.74-144.087 321.827-321.826 321.827-177.741 0-321.827-144.087-321.827-321.827S192.03 55.066 369.77 55.066c164.288 0 302.203 123.748 319.945 287.076"/></svg>
